public/assets/images/utils/light.svg

<svg width="42" height="42" viewBox="0 0 42 42" fill="none" xmlns="http://www.w3.org/2000/svg">
<rect width="42" height="42" rx="21" fill="white"/>
<rect x="0.5" y="0.5" width="41" height="41" rx="20.5" stroke="#007DFE" stroke-opacity="0.5373"/>
<path d="M18.083 32.6667H23.9163M18.6663 18.6667H23.333M20.9997 18.6667L20.9997 25.6667M24.4997 24.8808C27.2588 23.5701 29.1663 20.7578 29.1663 17.5C29.1663 12.9897 25.51 9.33337 20.9997 9.33337C16.4893 9.33337 12.833 12.9897 12.833 17.5C12.833 20.7578 14.7406 23.5701 17.4997 24.8808V25.6667C17.4997 26.7539 17.4997 27.2975 17.6773 27.7263C17.9141 28.298 18.3683 28.7523 18.9401 28.9891C19.3689 29.1667 19.9125 29.1667 20.9997 29.1667C22.0869 29.1667 22.6305 29.1667 23.0593 28.9891C23.631 28.7523 24.0852 28.298 24.3221 27.7263C24.4997 27.2975 24.4997 26.7539 24.4997 25.6667V24.8808Z" stroke="#0078D4" stroke-linecap="round" stroke-linejoin="round"/>
</svg>

<svg xmlns="http://www.w3.org/2000/svg" fill="none" viewBox="0 0 42 42"><rect width="42" height="42" fill="#fff" rx="21"/><rect width="41" height="41" x=".5" y=".5" stroke="#007dfe" stroke-opacity=".537" rx="20.5"/><path stroke="#0078d4" stroke-linecap="round" stroke-linejoin="round" d="M18.083 32.667h5.833m-5.25-14h4.667m-2.333 0v7m3.5-.786a8.167 8.167 0 1 0-7 0v.786c0 1.087 0 1.63.177 2.06a2.33 2.33 0 0 0 1.263 1.262c.429.178.973.178 2.06.178s1.63 0 2.06-.178a2.33 2.33 0 0 0 1.262-1.263c.178-.428.178-.972.178-2.06z"/></svg>
